Catalina-light/actions/22/office-chart-area-percentage.svg

<svg viewBox="0 0 22 22" xmlns="http://www.w3.org/2000/svg">
<defs>
<style id="current-color-scheme" type="text/css">.ColorScheme-Text {
        color:#4d4d4d;
      }</style>
</defs>
<path class="ColorScheme-Text" d="m4 3v14h-1v1h1v1h1v-1h14v-1h-14v-1h3v-0.007812l0.0078125 0.007812 2-2h1.5918l2 2h5.4004v-1h-4.9863l-2-2h-2.42l-2 2h-2.5938v-7h2.5879l4.5352 4.5352 0.001953-0.001953 0.001953 0.001953 2.127-2.125 3.166 3.166 0.70703-0.70703-3.8691-3.8691-0.003906 0.0039062-0.005859-0.0039062-2.123 2.123-4.123-4.123h-2.002v-0.0078125h-1v-0.99219h7v-1h-7v-2h-1zm8 0v1h1v3h1v-4h-2zm4.5 0c-0.831 0-1.5 0.669-1.5 1.5v1c0 0.831 0.669 1.5 1.5 1.5s1.5-0.669 1.5-1.5v-1c0-0.831-0.669-1.5-1.5-1.5zm4 0c-0.831 0-1.5 0.669-1.5 1.5v1c0 0.831 0.669 1.5 1.5 1.5s1.5-0.669 1.5-1.5v-1c0-0.831-0.669-1.5-1.5-1.5zm-4 1c0.277 0 0.5 0.223 0.5 0.5v1c0 0.277-0.223 0.5-0.5 0.5s-0.5-0.223-0.5-0.5v-1c0-0.277 0.223-0.5 0.5-0.5zm4 0c0.277 0 0.5 0.223 0.5 0.5v1c0 0.277-0.223 0.5-0.5 0.5s-0.5-0.223-0.5-0.5v-1c0-0.277 0.223-0.5 0.5-0.5z" fill="currentColor"/>
<path class="ColorScheme-Text" d="m5.0078 6v1h2.9922l4 4v-5h-6.9922zm-0.0078125 2v7h2.5937l2-2h0.40625l2-0.007812 0.007812 0.007812h0.00586l1.9922 1.9922 1.9961 0.005859 2.0195-2.0195s-0.001953-0.001954-0.001953-0.001954l-0.59961 0.59961-3.166-3.166-2.127 2.125-0.001953-0.001953-0.001953 0.001953-4.5352-4.5352h-2.5879zm5 6-2 2h-3v1h14v-1h-5.4004l-2-2h-1.5996z" fill="currentColor" fill-opacity=".5"/>
</svg>

<svg xmlns="http://www.w3.org/2000/svg" viewBox="0 0 22 22">
  <defs id="defs3051">
    <style type="text/css" id="current-color-scheme">
      .ColorScheme-Text {
        color:#4d4d4d;
      }
      </style>
  </defs>
 <path 
     style="fill:currentColor;fill-opacity:1;stroke:none" 
     d="M 4 3 L 4 6.9921875 L 4 8 L 4 15 L 4 16 L 4 17 L 3 17 L 3 18 L 4 18 L 4 19 L 5 19 L 5 18 L 19 18 L 19 17 L 5 17 L 5 16 L 5.0078125 16 L 6 16 L 8 16 L 8 15.992188 L 8.0078125 16 L 10.007812 14 L 11.599609 14 L 13.599609 16 L 17.099609 16 L 19 16 L 19 15 L 17.099609 15 L 14.013672 15 L 12.013672 13 L 12 13 L 11.007812 13 L 10.599609 13 L 9.59375 13 L 7.59375 15 L 6 15 L 5.0078125 15 L 5 15 L 5 12 L 5 11 L 5 10 L 5 8 L 5.0078125 8 L 6 8 L 7.5878906 8 L 9.2949219 9.7070312 L 10.123047 10.535156 L 12.123047 12.535156 L 12.125 12.533203 L 12.126953 12.535156 L 14.253906 10.410156 L 15.550781 11.707031 L 16.378906 12.535156 L 17.419922 13.576172 L 18.126953 12.869141 L 17.085938 11.828125 L 16.257812 11 L 14.257812 9 L 14.253906 9.0039062 L 14.248047 9 L 12.125 11.123047 L 10.830078 9.828125 L 10.001953 9 L 8.0019531 7 L 8 7 L 6 7 L 6 6.9921875 L 5 6.9921875 L 5 6 L 12 6 L 12 5 L 5 5 L 5 3 L 4 3 z M 12 3 L 12 4 L 13 4 L 13 7 L 14 7 L 14 3 L 13 3 L 12 3 z M 16.5 3 C 15.669 3 15 3.669 15 4.5 L 15 5.5 C 15 6.331 15.669 7 16.5 7 C 17.331 7 18 6.331 18 5.5 L 18 4.5 C 18 3.669 17.331 3 16.5 3 z M 20.5 3 C 19.669 3 19 3.669 19 4.5 L 19 5.5 C 19 6.331 19.669 7 20.5 7 C 21.331 7 22 6.331 22 5.5 L 22 4.5 C 22 3.669 21.331 3 20.5 3 z M 16.5 4 C 16.777 4 17 4.223 17 4.5 L 17 5.5 C 17 5.777 16.777 6 16.5 6 C 16.223 6 16 5.777 16 5.5 L 16 4.5 C 16 4.223 16.223 4 16.5 4 z M 20.5 4 C 20.777 4 21 4.223 21 4.5 L 21 5.5 C 21 5.777 20.777 6 20.5 6 C 20.223 6 20 5.777 20 5.5 L 20 4.5 C 20 4.223 20.223 4 20.5 4 z "
     class="ColorScheme-Text"
     />
 <path 
     style="fill:currentColor;fill-opacity:0.5;stroke:none" 
     d="M 5.0078125 6 L 5.0078125 7 L 8 7 L 12 11 L 12 7 L 12 6 L 5.0078125 6 z M 5 8 L 5 10 L 5 11 L 5 12 L 5 15 L 5.0078125 15 L 7.59375 15 L 9.59375 13 L 10 13 L 12 12.992188 L 12.007812 13 L 12.013672 13 L 14.005859 14.992188 L 16.001953 14.998047 L 17 14 L 18.021484 12.978516 C 18.021484 12.978516 18.019531 12.976562 18.019531 12.976562 L 17.419922 13.576172 L 16.378906 12.535156 L 15.550781 11.707031 L 14.253906 10.410156 L 12.126953 12.535156 L 12.125 12.533203 L 12.123047 12.535156 L 10.123047 10.535156 L 9.2949219 9.7070312 L 7.5878906 8 L 5.0078125 8 L 5 8 z M 10 14 L 8 16 L 5 16 L 5 17 L 19 17 L 19 16 L 13.599609 16 L 11.599609 14 L 10 14 z "
     class="ColorScheme-Text"
     />
</svg>
